Numix-GalliumOS/64/mimetypes/unknown.svg

<svg xmlns="http://www.w3.org/2000/svg" xmlns:xlink="http://www.w3.org/1999/xlink" width="64px" height="64px" viewBox="0 0 64 64" version="1.1">
<g id="surface1">
<path style=" stroke:none;fill-rule:nonzero;fill:rgb(86.27451%,86.27451%,86.27451%);fill-opacity:1;" d="M 10.671875 0 C 9.296875 0 8 1.355469 8 2.789062 L 8 61.210938 C 8 62.566406 9.375 64 10.671875 64 L 53.328125 64 C 54.625 64 56 62.566406 56 61.210938 L 56 18 L 38 0 Z M 10.671875 0 "/>
<path style=" stroke:none;fill-rule:nonzero;fill:rgb(0%,0%,0%);fill-opacity:0.196078;" d="M 42 18 L 56 32 L 56 18 Z M 42 18 "/>
<path style=" stroke:none;fill-rule:nonzero;fill:rgb(100%,100%,100%);fill-opacity:0.392157;" d="M 38 0 L 55.984375 18 L 40.757812 18 C 39.410156 18 38 16.574219 38 15.226562 Z M 38 0 "/>
<path style=" stroke:none;fill-rule:nonzero;fill:rgb(53.333333%,53.333333%,53.333333%);fill-opacity:1;" d="M 29.25 42.382812 L 29.25 41.429688 C 29.25 40.054688 29.492188 38.921875 29.976562 38.039062 C 30.453125 37.148438 31.351562 36.210938 32.664062 35.21875 C 34.476562 33.867188 35.625 32.851562 36.09375 32.171875 C 36.570312 31.484375 36.8125 30.664062 36.8125 29.703125 C 36.8125 28.5 36.367188 27.578125 35.492188 26.929688 C 34.617188 26.273438 33.367188 25.945312 31.71875 25.945312 C 30.664062 25.945312 29.632812 26.054688 28.632812 26.28125 C 27.632812 26.492188 26.476562 26.882812 25.179688 27.460938 L 24 25.078125 C 26.523438 23.914062 29.164062 23.335938 31.921875 23.335938 C 34.476562 23.335938 36.460938 23.882812 37.875 24.992188 C 39.289062 26.09375 40 27.65625 40 29.664062 C 40 30.523438 39.867188 31.28125 39.601562 31.9375 C 39.34375 32.585938 38.960938 33.203125 38.453125 33.789062 C 37.945312 34.367188 36.851562 35.304688 35.171875 36.59375 C 33.820312 37.609375 32.921875 38.445312 32.484375 39.117188 C 32.054688 39.789062 31.835938 40.679688 31.835938 41.796875 L 31.835938 42.382812 L 29.25 42.382812 M 28.273438 47.617188 C 28.273438 46.023438 29.070312 45.21875 30.679688 45.21875 C 31.453125 45.21875 32.046875 45.429688 32.460938 45.835938 C 32.890625 46.25 33.101562 46.84375 33.101562 47.617188 C 33.101562 48.375 32.890625 48.960938 32.460938 49.382812 C 32.03125 49.796875 31.4375 50 30.679688 50 C 29.984375 50 29.40625 49.820312 28.953125 49.453125 C 28.5 49.078125 28.273438 48.46875 28.273438 47.617188 "/>
</g>
</svg>

<svg xmlns="http://www.w3.org/2000/svg" viewBox="0 0 64 64">
 <path d="m 10.672 0 c -1.375 0 -2.672 1.355 -2.672 2.789 l 0 58.42 c 0 1.355 1.375 2.789 2.672 2.789 l 42.656 0 c 1.297 0 2.672 -1.434 2.672 -2.789 l 0 -43.21 -18 -18 m -27.328 0" style="fill:#dcdcdc;fill-opacity:1;stroke:none;fill-rule:nonzero"/>
 <path d="m 42 18 14 14 0 -14 z m 0 0" style="fill:#000;fill-opacity:0.196;stroke:none;fill-rule:nonzero"/>
 <path d="m 38 0 17.984 18 -15.227 0 c -1.348 0 -2.758 -1.426 -2.758 -2.773 m 0 -15.227" style="fill:#fff;fill-opacity:0.392;stroke:none;fill-rule:nonzero"/>
 <path d="m 29.25 42.38 0 -0.953 c 0 -1.375 0.242 -2.508 0.727 -3.391 0.477 -0.891 1.375 -1.828 2.688 -2.82 1.813 -1.352 2.961 -2.367 3.43 -3.047 0.477 -0.688 0.719 -1.508 0.719 -2.469 0 -1.203 -0.445 -2.125 -1.32 -2.773 -0.875 -0.656 -2.125 -0.984 -3.773 -0.984 -1.055 0 -2.086 0.109 -3.086 0.336 -1 0.211 -2.156 0.602 -3.453 1.18 l -1.18 -2.383 c 2.523 -1.164 5.164 -1.742 7.922 -1.742 2.555 0 4.539 0.547 5.953 1.656 1.414 1.102 2.125 2.664 2.125 4.672 0 0.859 -0.133 1.617 -0.398 2.273 -0.258 0.648 -0.641 1.266 -1.148 1.852 -0.508 0.578 -1.602 1.516 -3.281 2.805 -1.352 1.016 -2.25 1.852 -2.688 2.523 -0.43 0.672 -0.648 1.563 -0.648 2.68 l 0 0.586 -2.586 0 m -0.977 5.234 c 0 -1.594 0.797 -2.398 2.406 -2.398 0.773 0 1.367 0.211 1.781 0.617 0.43 0.414 0.641 1.01 0.641 1.781 0 0.758 -0.211 1.344 -0.641 1.766 c -0.43 0.414 -1.023 0.617 -1.781 0.617 -0.695 0 -1.273 -0.18 -1.727 -0.547 -0.453 -0.375 -0.68 -0.984 -0.68 -1.836" style="fill:#888;fill-opacity:1;stroke:none;fill-rule:nonzero"/>
</svg>
